X: 27553
T: Mond Tanz
R: reel
M: 4/4
K: Dminor
|:f3 e d2 e2|f2 g2 a4|g3 f e2 d2|d4 f2 e2|
f3 e d2 e2|f2 g2 a4|g4 c4|d8:|
b3 a g2 b2|a2 g2 f4|g4 a2 g2|f8|
f3 e d2 e2|f2 g2 a4|g4 c4|d8||

